img/svg/phone.svg

<svg viewBox="0 0 38 38" fill="none" xmlns="http://www.w3.org/2000/svg">
<circle cx="19" cy="19" r="19" fill="#EF7239"/>
<path fill-rule="evenodd" clip-rule="evenodd" d="M27.6765 25.5946C27.1209 27.2829 24.9441 28.1253 23.3889 27.9849C21.2648 27.7929 18.9536 26.6662 17.1992 25.4254C14.6204 23.6015 12.2048 20.7804 10.7972 17.7865C9.80235 15.6709 9.57915 13.0694 11.0588 11.1411C11.606 10.4283 12.1976 10.0479 13.0868 10.0035C14.3204 9.94355 14.4932 10.6491 14.9168 11.7483C15.2324 12.5703 15.6536 13.409 15.8888 14.261C16.3292 15.8509 14.7896 15.9169 14.5952 17.2165C14.474 18.0361 15.4676 19.1352 15.9164 19.7196C16.796 20.8644 17.8532 21.8519 19.046 22.6031C19.7288 23.0339 20.8316 23.8103 21.614 23.3819C22.8189 22.7219 22.7049 20.6904 24.3897 21.3779C25.2621 21.7331 26.1069 22.2455 26.9397 22.6943C28.2273 23.3867 28.1673 24.1042 27.6765 25.5946C28.0437 24.481 27.3093 26.7082 27.6765 25.5946Z" fill="#F3F3F3"/>
</svg>

<svg viewBox="0 0 38 38" fill="none" xmlns="http://www.w3.org/2000/svg"><circle cx="19" cy="19" r="19" fill="#EF7239"/><path fill-rule="evenodd" clip-rule="evenodd" d="M27.677 25.595c-.556 1.688-2.733 2.53-4.288 2.39-2.124-.192-4.435-1.319-6.19-2.56-2.579-1.823-4.994-4.645-6.402-7.639-.995-2.115-1.218-4.717.262-6.645.547-.713 1.139-1.093 2.028-1.137 1.233-.06 1.406.645 1.83 1.744.315.822.737 1.661.972 2.513.44 1.59-1.1 1.656-1.294 2.956-.121.82.873 1.918 1.321 2.503a12.126 12.126 0 003.13 2.883c.683.43 1.786 1.207 2.568.779 1.205-.66 1.09-2.692 2.776-2.004.872.355 1.717.867 2.55 1.316 1.287.693 1.227 1.41.736 2.9.368-1.113-.367 1.114 0 0z" fill="#F3F3F3"/></svg>
